X: 4334
T: Boil The Breakfast Early
R: reel
M: 4/4
K: Gmajor
G3B ADD2|GBB2 c2BA|G2BG ADD2|GEE2 cABA|
G3B ADD2|GBB2 c2Bc|dBcA BGAF|GEE2 c2Bc||
d2fd edBA|d2ef g2fe|d2fd edBA|GEE2 c2Bc|
d2fd edBA|d2ef g2fg|afge fdBA|GEE2 c2Bc||
dAA2 dAFA|dAA2 defe|dAA2 dAFA|GEE2 c2Bc|
dAA2 dAFA|d2d^c defe|d2cA BGAF|G2 Bd g2BA||

